icons/abell.svg

<svg viewBox="0 0 512 512" xmlns="http://www.w3.org/2000/svg"><path d="m251.4 126.43c-81.61 21.75-118 73.79-97.33 139.2 12.92 40.89 57.66 52.58 84.98 45.3 64.44-17.18 49.34-67.47 48.67-69.6l-13.13 3.16c.09.32 8.12 32.15-42.14 45.55-23.61 6.29-58.03-4.74-65.34-27.89-16.3-51.55 18.54-95.54 90.9-114.83 95.01-25.33 170.67 3.41 192.73 73.21 23.12 73.16-21.43 175.51-149.54 221.08l7.24 20.68c137.42-48.87 182.16-160.37 155.33-245.24-26.07-82.49-109.43-118.06-212.37-90.62z" fill="#3354ea"/><g fill="#09239d"><path d="m349.4 252.43c-6.49-42.88-46.12-61.02-72.22-57.62-61.58 8.02-54.33 60.64-53.99 62.88l12.5-1.29c-.04-.34-3.23-33.43 44.8-39.68 22.57-2.94 52.78 13.06 56.46 37.33 8.18 54.06-29.69 93.22-98.84 102.22-90.79 11.82-156.62-27.84-167.7-101.04-11.62-76.72 42.91-173.05 166.84-200.44l-3.94-21.79c-132.92 29.37-188.83 134.85-175.36 223.85 13.1 86.51 85.12 134.13 183.48 121.33 77.99-10.15 118.36-57.16 107.97-125.75z"/><path d="m239.65 32.1 20.55-3.97 3.96 20.55-20.55 3.97zm30.38-2.83 19.58-.76.76 19.59-19.58.76zm30.63.5 19.46 2.38-2.38 19.45-19.46-2.38z"/></g></svg>

<svg xmlns="http://www.w3.org/2000/svg" viewBox="0 0 512 512"><g><g><path fill="#3354ea" d="M251.4 126.43C169.79 148.18 133.4 200.22 154.07 265.63C166.99 306.52 211.73 318.21 239.05 310.93C303.49 293.75 288.39 243.46 287.72 241.33L274.59 244.49C274.68 244.81 282.71 276.64 232.45 290.04C208.84 296.33 174.42 285.3 167.11 262.15C150.81 210.6 185.65 166.61 258.01 147.32C353.02 121.99 428.68 150.73 450.74 220.53C473.86 293.69 429.31 396.04 301.2 441.61L308.44 462.29C445.86 413.42 490.6 301.92 463.77 217.05C437.7 134.56 354.34 98.99 251.4 126.43Z" /><path fill="#09239d" d="M349.4 252.43C342.91 209.55 303.28 191.41 277.18 194.81C215.6 202.83 222.85 255.45 223.19 257.69L235.69 256.4C235.65 256.06 232.46 222.97 280.49 216.72C303.06 213.78 333.27 229.78 336.95 254.05C345.13 308.11 307.26 347.27 238.11 356.27C147.32 368.09 81.49 328.43 70.41 255.23C58.79 178.51 113.32 82.18 237.25 54.79L233.31 33C100.39 62.37 44.48 167.85 57.95 256.85C71.05 343.36 143.07 390.98 241.43 378.18C319.42 368.03 359.79 321.02 349.4 252.43Z" /><path fill="#09239d" d="M239.65 32.1L260.2 28.13L264.16 48.68L243.61 52.65L239.65 32.1ZM270.03 29.27L289.61 28.51L290.37 48.1L270.79 48.86L270.03 29.27ZM300.66 29.77L320.12 32.15L317.74 51.6L298.28 49.22L300.66 29.77Z" /></g></g></svg>
